!!!!SEGMENT: Ric2029-Saulus_adhuc_spirans--Konigsberg_7
!!!id: Ric2029
!!!SMS: Konigsberg 7
!!!AGN: Motet
!!!voices: 3
!!!COM: Jean Richafort
!!!OTL: Saulus adhuc spirans (Konigsberg 7)
**kern	**kern	**kern
*part3	*part2	*part1
*staff3	*staff2	*staff1
*I"Bassus	*I"Tenor	*I"Superius
*I'B.	*I'T.	*I'S.
*clefF4	*clefGv2	*clefG2
*k[b-]	*k[b-]	*k[b-]
*M2/1	*M2/1	*M2/1
*met(C|)	*met(C|)	*met(C|)
=1	=1	=1
!!section: Prima pars: Saulus adhuc spirans
!!!OMD: Prima pars: Saulus adhuc spirans
!	!	!LO:TX:a:t=Altus not extant
0r	0r	0r
=2	=2	=2
0r	0d	0r
=3	=3	=3
0r	1c	0r
.	1c	.
=4	=4	=4
0r	1d	0dd
.	1B-y	.
=5	=5	=5
0r	0A	1cc
.	.	1cc
=6	=6	=6
0G	0r	1dd
.	.	1b-y
=7	=7	=7
1F	0r	0a
1F	.	.
=8	=8	=8
1G	0g	0r
1E	.	.
=9	=9	=9
0D	1f	1r
.	1f	1a
=10	=10	=10
0r	1g	2b-y
.	.	1dd
.	1e	.
.	.	2cc
=11	=11	=11
0r	1d	2b-y
.	.	2.a
.	1r	.
.	.	4b-y
.	.	2cc
=12	=12	=12
0r	0r	2b-y
.	.	1a
.	.	4g
.	.	4f
=13	=13	=13
0r	1r	2e
.	.	2d
.	1A	1e
=14	=14	=14
0r	2B-y	4d
.	.	4e
.	1d	4f
.	.	4g
.	.	4a
.	.	4b-y
.	2c	2cc
=15	=15	=15
0r	1d	2b-y
.	.	2.a
.	2B-y	.
.	.	4g
.	2c	[2g
=16	=16	=16
1D	1A	2g]
.	.	2f#i
2E	4G	1g
.	4A	.
[2G	4B-y	.
.	4c	.
=17	=17	=17
2G]	4d	0r
.	4e	.
2F	2f	.
2G	2e	.
[2B-y	[2d	.
=18	=18	=18
2B-]	2d]	1r
2A	2c	.
2G	2B-y	1d
2F	2A	.
=19	=19	=19
1E-X	2B-y	2e
.	2G	1g
1D	1A	.
.	.	2f#i
=20	=20	=20
0r	2G	2g
.	2.d	1b-y
.	4e	.
.	2f	2a
=21	=21	=21
0r	2e	2g
.	1d	2f
.	.	1e
.	2c#i	.
=22	=22	=22
2r	2d	1d
2.G	1B-y	.
.	.	1g
4F	.	.
2E	4A	.
.	4G	.
=23	=23	=23
2.D	2A	2f
.	2d	2.a
4E	.	.
4F	1c	.
4G	.	4b-y
2A	.	2cc
=24	=24	=24
2B-y	2r	2b-y
2F	1f	1a
2.G	.	.
.	2e	2g
4F	.	.
=25	=25	=25
2D	2d	1a
2F	2c	.
1G	1B-y	1dd
=26	=26	=26
2r	2A	2cc
2G	1d	2b-y
2D	.	4a
.	.	4g
2F	2c	4f
.	.	4e
=27	=27	=27
2G	2B-y	2d
2E-X	2G	1g
1D	1A	.
.	.	2f#i
=28	=28	=28
[0G	[0G	0g
=29	=29	=29
0G]	0G]	2r
.	.	1g
.	.	2g
=30	=30	=30
0r	0r	2f
.	.	2f
.	.	2g
.	.	2a
=31	=31	=31
0r	0r	2b-y
.	.	2g
.	.	2a
.	.	2b-y
=32	=32	=32
2r	0r	2g
1G	.	1b-y
2G	.	2b-y
=33	=33	=33
2F	0r	2.a
2F	.	.
.	.	8gL
.	.	8fJ
2G	.	1e
2A	.	.
=34	=34	=34
2.B-y	2r	0d
.	1d	.
8AL	.	.
8GJ	.	.
2F	.	.
2G	2d	.
=35	=35	=35
2E	2c	0r
1F	2c	.
.	2d	.
2G	2e	.
=36	=36	=36
2A	2f	0r
2B-y	2d	.
2G	2e	.
2A	[2f	.
=37	=37	=37
2F	4f]	2r
.	4e	.
2G	1d	1g
1E	.	.
.	2c#i	2g
=38	=38	=38
1D	[0d	2f
.	.	2f
1r	.	[1b-y
=39	=39	=39
0r	0d_	2b-]
.	.	2b-y
.	.	1a
=40	=40	=40
0r	0d]	2r
.	.	2d
.	.	2.f
.	.	4g
=41	=41	=41
0r	0r	2a
.	.	2b-y
.	.	2a
.	.	[2b-y
=42	=42	=42
0r	0r	4b-]
.	.	4a
.	.	1g
.	.	4f
.	.	4e
=43	=43	=43
2r	1r	0f
2B-y	.	.
2B-y	2r	.
2B-y	2f	.
=44	=44	=44
2A	2f	0r
2F	2f	.
1A	2e	.
.	2c	.
=45	=45	=45
0G	1e	2r
.	.	2b-y
.	[1d	2b-y
.	.	2b-y
=46	=46	=46
1D	1d]	2a
.	.	2f
2F	1A	1a
2F	.	.
=47	=47	=47
0C	2c	0g
.	2c	.
.	[1G	.
=48	=48	=48
1r	1G]	2r
.	.	2d
2r	1r	2f
2D	.	2f
=49	=49	=49
2F	0r	2c
2F	.	2c
2C	.	1e
[2A	.	.
=50	=50	=50
2A]	2r	1d
2G	1g	.
1F	.	2c
.	2f	[2cc
=51	=51	=51
1E	2e	2cc]
.	2d	2b-y
2r	2c	1a
2D	2d	.
=52	=52	=52
2E	2G	1g
1C	1c	.
.	.	2r
2G	2B-y	2d
=53	=53	=53
2C	1c	2e
1c	.	2c
.	1G	1d
2BnXi	.	.
=54	=54	=54
2.c	2r	2c
.	1c	2g
4B-y	.	.
2A	.	2a
2B-y	[2d	2f
=55	=55	=55
1G	2d]	1b-y
.	2B-y	.
2F	2c	2a
[2G	2B-y	[2b-y
=56	=56	=56
2G]	2G	4b-]
.	.	4a
2F	2A	1a
1G	1B-y	.
.	.	2g
=57	=57	=57
0D	2A	2a
.	2A	2a
.	2A	2a
.	2A	2a
=58	=58	=58
0r	2G	2b-y
.	2F	1a
.	1B-y	.
.	.	2g
=59	=59	=59
0r	2A	2a
.	1d	1b-y
.	2c	4a
.	.	4g
=60	=60	=60
2r	1d	0f
2d	.	.
2d	2r	.
2d	2d	.
=61	=61	=61
2c	2e	0r
2B-y	2f	.
1e-X	2g	.
.	2g	.
=62	=62	=62
1.d	1.f	2r
.	.	2a
.	.	2a
2c	2e	2a
=63	=63	=63
2B-y	2d	2g
2A	2c	2f
1G	2c	1b-y
.	2B-y	.
=64	=64	=64
1F	1c	2.a
.	.	4g
1r	1r	2f
.	.	[2e
=65	=65	=65
2r	0r	4e]
.	.	4d
2F	.	1d
2G	.	.
2A	.	2c
=66	=66	=66
2.B-y	0r	2d
.	.	2f
4A	.	.
2G	.	2g
2F	.	2a
=67	=67	=67
2G	1r	2.b-y
2.B-y	.	.
.	.	4a
.	2r	2g
8AL	.	.
8GJ	.	.
2A	2c	2f#i
=68	=68	=68
2G	2d	1g
2E	2e	.
1D	2.f	1r
.	4e	.
=69	=69	=69
0r	2d	1r
.	2c	.
.	2d	2r
.	2f	2f
=70	=70	=70
0r	1e	2g
.	.	2a
.	[1d	2.b-y
.	.	4a
=71	=71	=71
0r	0d_	2g
.	.	2f
.	.	2g
.	.	2b-y
=72	=72	=72
0r	1d]	1a
.	2r	[1g
.	2c	.
=73	=73	=73
2r	2d	1g]
2C	2e	.
2D	2.f	1r
2E	.	.
.	4e	.
=74	=74	=74
2.F	2d	0r
.	2c	.
4E	.	.
2D	2d	.
2C	[2e	.
=75	=75	=75
2D	4e]	0r
.	4d	.
2F	1d	.
1E	.	.
.	2c	.
=76	=76	=76
2D	1d	1r
2A	.	.
2B-y	1r	2r
2c	.	2f
=77	=77	=77
2d	0d	2g
2D	.	2a
2G	.	2.b-y
2D	.	.
.	.	4a
=78	=78	=78
2G	1d	2g
2D	.	2f
2G	1d	2g
2D	.	[2a
=79	=79	=79
1G	0d	4a]
.	.	4g
.	.	1g
1D	.	.
.	.	2f#i
=80	=80	=80
0Gl	0dl	0gl
=81||	=81||	=81||
*M2/1	*M2/1	*M2/1
*met(C|)	*met(C|)	*met(C|)
!!section: Secunda pars: Et cum iter faceret
!!!OMD: Secunda pars: Et cum iter faceret
0r	1.c	1r
.	.	[1g
.	2c	.
=82	=82	=82
0r	2B-y	2g]
.	2G	2g
.	1B-y	2f
.	.	2d
=83	=83	=83
0r	1A	1f
.	2G	1e
.	2c	.
=84	=84	=84
1.G	2B-y	0d
.	2G	.
.	1B-y	.
2G	.	.
=85	=85	=85
2F	0A	2r
2D	.	1a
1F	.	.
.	.	2a
=86	=86	=86
1E	1r	2g
.	.	2e
[1D	2r	2f
.	[2d	2d
=87	=87	=87
1D]	2d]	1f
.	2d	.
1r	2c	1e
.	2A	.
=88	=88	=88
2r	2B-y	0d
1G	2G	.
.	1B-y	.
2G	.	.
=89	=89	=89
2F	1A	1r
2D	.	.
2E-X	[1G	2r
2C	.	[2g
=90	=90	=90
1E-i	1G]	2g]
.	.	2g
1D	1r	2f
.	.	2d
=91	=91	=91
0C	2r	1e
.	1c	.
.	.	2c
.	2c	[2g
=92	=92	=92
0r	2B-y	2g]
.	2G	2g
.	1B-y	2f
.	.	2d
=93	=93	=93
2r	2A	1f
1c	2F	.
.	1A	1e
2c	.	.
=94	=94	=94
2B-y	2G	2r
2G	2.B-y	2g
1B-y	.	2f
.	4A	.
.	2G	2g
=95	=95	=95
2A	2A	2e
2F	1c	2f
1G	.	2.d
.	2B-y	.
.	.	4e
=96	=96	=96
2F	1c	2f
2E	.	1g
1D	[1d	.
.	.	2f#i
=97	=97	=97
[0G	0d_	0g
=98	=98	=98
0G]	1d]	2r
.	.	2g
.	2r	2b-y
.	2d	2b-y
=99	=99	=99
0r	2f	2a
.	2f	1dd
.	2e	.
.	2a	2cc
=100	=100	=100
0r	2g	2b-y
.	2f	2a
.	2e	2g
.	2d	2f
=101	=101	=101
1r	2c	2e
.	1f	2d
2r	.	1g
2G	[2e	.
=102	=102	=102
2B-y	4e]	2f
.	4d	.
2B-y	1d	2d
1A	.	1e
.	2c	.
=103	=103	=103
1r	2d	0d
.	2.B-y	.
2r	.	.
.	4A	.
[2d	2F	.
=104	=104	=104
2d]	2G	1r
2c	2A	.
2.d	2.B-y	2r
.	.	[2dd
4c	4c	.
=105	=105	=105
2B-y	4d	2dd]
.	4e	.
2A	2f	2cc
2G	3.d	2b-y
2F	6e	[2a
.	3f	.
=106	=106	=106
1E-X	2B-y	4a]
.	.	4g
.	2c	1g
1D	[1d	.
.	.	2f
=107	=107	=107
2r	1d]	2g
1G	.	2.b-y
.	2r	.
.	.	4a
2G	2d	[2g
=108	=108	=108
2c	1e	2g]
2c	.	4f
.	.	4e
1B-y	1f	1d
=109	=109	=109
1G	2r	2r
.	2B-y	2d
1r	1c	1e
=110	=110	=110
1D	2.d	2f
.	.	2.d
.	4c	.
1G	1B-y	.
.	.	4c
.	.	4d
.	.	4e
=111	=111	=111
2F	2A	1f
2D	1d	.
1A	.	1e
.	2c#i	.
=112	=112	=112
0D	2d	2d
.	2f	2a
.	2f	2a
.	2f	2a
=113	=113	=113
0r	1g	1b-y
.	2f	2a
.	2d	2a
=114	=114	=114
0r	2g	2b-y
.	2f	2a
.	1g	1b-y
=115	=115	=115
2r	[0dl	2a
2D	.	2a
2D	.	2a
2D	.	2a
=116	=116	=116
1G	0d_	1b-y
2F	.	2a
2D	.	2a
=117	=117	=117
2G	0d_	2b-y
2F	.	2a
1G	.	1b-y
=118	=118	=118
0Dl	0d]	0al
=119||	=119||	=119||
*M2/1	*M2/1	*M2/1
*met(C|)	*met(C|)	*met(C|)
!!section: Tertia pars: Saule, quid me persequeris
!!!OMD: Tertia pars: Saule, quid me persequeris
0G	0g	0b-y
=120	=120	=120
1B-y	1f	1b-y
1B-y	1f	1b-y
=121	=121	=121
0F	0f	0a
=122	=122	=122
0C	2r	1r
.	2g	.
.	2g	2r
.	2e	2cc
=123	=123	=123
1r	2.f	2cc
.	.	2a
.	4e	.
2r	1d	2.b-y
2G	.	.
.	.	4a
=124	=124	=124
2G	2r	1g
2E	2e	.
2.F	2c	2r
.	2c	2a
4E	.	.
=125	=125	=125
1D	4d	2f
.	4e	.
.	4f	2f
.	4d	.
1r	2e	4g
.	.	4f
.	[2d	4e
.	.	4d
=126	=126	=126
1r	2d]	2e
.	2c#i	2e
2r	1d	[1d
[2G	.	.
=127	=127	=127
2G]	2r	1d]
2F	2A	.
1G	1B-y	2r
.	.	[2g
=128	=128	=128
1D	1A	2g]
.	.	2f#i
2r	[1G	1g
2G	.	.
=129	=129	=129
1B-y	1G]	1d
2c	1r	2r
2c	.	2g
=130	=130	=130
1G	2r	1b-y
.	2d	.
1r	1f	2cc
.	.	2cc
=131	=131	=131
1c	2g	1g
.	2g	.
2B-y	1d	1r
2G	.	.
=132	=132	=132
1A	1r	1cc
1G	1g	2b-y
.	.	2g
=133	=133	=133
0r	2f	1a
.	2d	.
.	1e	2g
.	.	[2a
=134	=134	=134
0r	1d	4a]
.	.	4g
.	.	1g
.	1r	.
.	.	2f
=135	=135	=135
1r	1r	1g
[1C	[1e	[1g
=136	=136	=136
2C]	2e]	2g]
2C	2e	2g
1C	1e	1g
=137	=137	=137
0G	0g	0b-y
=138	=138	=138
1D	1f	1a
[1G	[1g	[1b-y
=139	=139	=139
2G]	2g]	2b-]
2A	4f	4a
.	4e	4g
1B-y	2.d	2f
.	.	2g
.	4e	.
=140	=140	=140
0F	1f	1a
.	2r	2r
.	2f	2a
=141	=141	=141
0r	2.g	2.b-y
.	4f	4a
.	2e	2g
.	2d	2f
=142	=142	=142
2r	1c	[0g
2C	.	.
2C	2r	.
2G	2d	.
=143	=143	=143
2.C	2.e-X	0g]
4D	4d	.
4E	2c	.
4F	.	.
2G	2B-y	.
=144	=144	=144
1C	1c	1r
2r	2r	2r
2c	2enXi	2a
=145	=145	=145
2.d	2.f	2.b-y
4c	4e	4a
2B-y	2d	2g
2A	2c	2f
=146	=146	=146
2.G	1d	[0gl
4F	.	.
2E	1r	.
2D	.	.
=147	=147	=147
2.C	1r	0g_
4D	.	.
4E	2r	.
4F	.	.
2G	2d	.
=148	=148	=148
2.C	2.e-X	0g_
4BB-y	4d	.
2C	2c	.
2C	2c	.
=149	=149	=149
0Gl	0B-yl	0g]
==	==	==
*-	*-	*-
!!!system-decoration: s1,s2,s3
!!!RDF**kern: i = editorial accidental
!!!RDF**kern: l = terminal long
!!!ENC: Max Blistain
!!!END: 2026/2/13
!!!EED: Benjamin Ory
!!!EEV: 2026/02/23
!!!YEC: Copyright 2026 Benjamin Ory, All Rights Reserved
!!!ONB: Translated from MusicXML on 2026/02/23
